icon-themes/sifr_svg/cmd/sc_dbtabledelete.svg

<svg viewBox="0 0 16 16" xmlns="http://www.w3.org/2000/svg"><path d="m1 0v15h6v-7h9v-8zm2 2h3v2h-3zm4 0h3v2h-3zm4 0h3v2h-3zm-8 3h3v2h-3zm4 0h3v2h-3zm4 0h3v2h-3zm-8 3h3v2h-3zm7.1875 1c-.6627 0-1.1875.54899-1.1875 1.21875v4.5625c0 .66976.5248 1.21875 1.1875 1.21875h4.8125c.6627 0 1-.54899 1-1.21875v-4.5625c0-.66976-.33729-1.21875-1-1.21875zm-.1875 1h1l1.5 1.5 1.5-1.5h1v1l-1.5 1.5 1.5 1.5v1h-1l-1.5-1.5-1.5 1.5h-1v-1l1.5-1.5-1.5-1.5zm-7 1h3v2h-3z" fill="#555753"/></svg>

<svg xmlns="http://www.w3.org/2000/svg" viewBox="0 0 16 16">
  <path
     style="fill:#555753"
     d="M 1 0 L 1 15 L 7 15 L 7 8 L 16 8 L 16 0 L 1 0 z M 3 2 L 6 2 L 6 4 L 3 4 L 3 2 z M 7 2 L 10 2 L 10 4 L 7 4 L 7 2 z M 11 2 L 14 2 L 14 4 L 11 4 L 11 2 z M 3 5 L 6 5 L 6 7 L 3 7 L 3 5 z M 7 5 L 10 5 L 10 7 L 7 7 L 7 5 z M 11 5 L 14 5 L 14 7 L 11 7 L 11 5 z M 3 8 L 6 8 L 6 10 L 3 10 L 3 8 z M 10.1875 9 C 9.5248 9 9 9.54899 9 10.21875 L 9 14.78125 C 9 15.45101 9.5248 16 10.1875 16 L 15 16 C 15.6627 16 16 15.45101 16 14.78125 L 16 10.21875 C 16 9.54899 15.66271 9 15 9 L 10.1875 9 z M 10 10 L 11 10 L 12.5 11.5 L 14 10 L 15 10 L 15 11 L 13.5 12.5 L 15 14 L 15 15 L 14 15 L 12.5 13.5 L 11 15 L 10 15 L 10 14 L 11.5 12.5 L 10 11 L 10 10 z M 3 11 L 6 11 L 6 13 L 3 13 L 3 11 z "
     />
</svg>
